X: 305851
M: 2/4
L: 1/16
K: A
E2 |\
[K:=f=c=g]\
[K:Am]\
e2e2 c2ce | A4 A2^GA | B2B2 Bfed | dcBc A2Ac |\
f2f2 a2a2 | e2e2 c2ec | B2dB A2^G2 | B4 "^D.C."A2 |]


